X: 41
T: POLKA PIQUEE
M: 4/4
L: 1/8
Q:1/4=120
K:G
|DBBA/2G/2 FGE3/2 z/2 |EAAG/2F/2 EFED|DBBA/2G/2 FGE3/2 z/2 |EAAG/2F/2 EF
G3/2 z/2 |
B3/2 z/2 G3/2 z/2 DGFE|A3/2 z/2 F3/2 z/2 EFD3/2 z/2 |B3/2 z/2 G3/2 z/2 D
GFE|A3/2 z/2 F3/2 z/2 EFG3/2|
